X: 26386
T: Merry Days Of Easter, The
R: reel
M: 4/4
K: Gmajor
BG~G2 cBAc|BdGB c2cA|BG~G2 DGcA|Bdgd BGGA|
B3d c3A|Bdgd cA~A2|BG~G2 DGGA|Bdgd Bdga||
bgaf (3ggg fg|(3eee ag a2ac'|bgaf gfed|(3Bcd ef g3a|
~b2ab g2fg|~e2ag a2ab|c'eac' bgef|gbaf gedc||

